images/insta-icon.svg

<svg width="25" height="25" viewBox="0 0 25 25" fill="none" xmlns="http://www.w3.org/2000/svg">
<g clip-path="url(#clip0_4_552)">
<mask id="mask0_4_552" style="mask-type:luminance" maskUnits="userSpaceOnUse" x="0" y="0" width="25" height="25">
<path d="M24.58 0.0800781H0.580017V24.0801H24.58V0.0800781Z" fill="white"/>
</mask>
<g mask="url(#mask0_4_552)">
<path d="M12.58 24.0801C19.2074 24.0801 24.58 18.7075 24.58 12.0801C24.58 5.45266 19.2074 0.0800781 12.58 0.0800781C5.9526 0.0800781 0.580017 5.45266 0.580017 12.0801C0.580017 18.7075 5.9526 24.0801 12.58 24.0801Z" fill="#BA8D5B"/>
<path d="M15.1295 5.41211H10.0362C7.76421 5.41211 5.91888 7.25744 5.91888 9.52944V14.6228C5.91888 16.8948 7.76421 18.7401 10.0362 18.7401H15.1295C17.4015 18.7401 19.2469 16.8948 19.2469 14.6228V9.52944C19.2469 7.25744 17.4015 5.41211 15.1295 5.41211ZM17.7589 14.6281C17.7589 16.0788 16.5802 17.2628 15.1242 17.2628H10.0309C8.58021 17.2628 7.39621 16.0841 7.39621 14.6281V9.53478C7.39621 8.08411 8.57488 6.90011 10.0309 6.90011H15.1242C16.5749 6.90011 17.7589 8.07878 17.7589 9.53478V14.6281Z" fill="white"/>
<path d="M12.5798 8.66992C10.7025 8.66992 9.17181 10.2006 9.17181 12.0779C9.17181 13.9553 10.7025 15.4859 12.5798 15.4859C14.4571 15.4859 15.9878 13.9553 15.9878 12.0779C15.9878 10.2006 14.4571 8.66992 12.5798 8.66992ZM12.5798 14.1473C11.4385 14.1473 10.5105 13.2193 10.5105 12.0779C10.5105 10.9366 11.4385 10.0086 12.5798 10.0086C13.7211 10.0086 14.6491 10.9366 14.6491 12.0779C14.6491 13.2193 13.7211 14.1473 12.5798 14.1473Z" fill="white"/>
<path d="M16.2474 9.04297C16.5614 8.99207 16.7746 8.69628 16.7237 8.3823C16.6728 8.06832 16.377 7.85505 16.0631 7.90595C15.7491 7.95685 15.5358 8.25264 15.5867 8.56662C15.6376 8.8806 15.9334 9.09387 16.2474 9.04297Z" fill="white"/>
</g>
</g>
<defs>
<clipPath id="clip0_4_552">
<rect width="24" height="24" fill="white" transform="translate(0.580017 0.0800781)"/>
</clipPath>
</defs>
</svg>

<svg xmlns="http://www.w3.org/2000/svg" width="25" height="25" fill="none"><g clip-path="url(#a)"><mask id="b" width="25" height="25" x="0" y="0" maskUnits="userSpaceOnUse" style="mask-type:luminance"><path fill="#fff" d="M24.58.08h-24v24h24v-24Z"/></mask><g mask="url(#b)"><path fill="#BA8D5B" d="M12.58 24.08c6.627 0 12-5.372 12-12 0-6.627-5.373-12-12-12s-12 5.373-12 12 5.373 12 12 12Z"/><path fill="#fff" d="M15.13 5.412h-5.094A4.12 4.12 0 0 0 5.92 9.53v5.094a4.12 4.12 0 0 0 4.117 4.117h5.094a4.12 4.12 0 0 0 4.117-4.117V9.529a4.12 4.12 0 0 0-4.117-4.117Zm2.629 9.216a2.637 2.637 0 0 1-2.635 2.635h-5.093a2.637 2.637 0 0 1-2.635-2.635V9.535A2.637 2.637 0 0 1 10.031 6.9h5.093a2.637 2.637 0 0 1 2.635 2.635v5.093Z"/><path fill="#fff" d="M12.58 8.67a3.414 3.414 0 0 0-3.408 3.408 3.414 3.414 0 0 0 3.408 3.408 3.414 3.414 0 0 0 3.408-3.408A3.414 3.414 0 0 0 12.58 8.67Zm0 5.477a2.071 2.071 0 0 1-2.07-2.07c0-1.14.928-2.068 2.07-2.068 1.141 0 2.07.928 2.07 2.069s-.929 2.07-2.07 2.07ZM16.247 9.043a.576.576 0 1 0-.184-1.137.576.576 0 0 0 .184 1.137Z"/></g></g><defs><clipPath id="a"><path fill="#fff" d="M.58.08h24v24h-24z"/></clipPath></defs></svg>
